X:1
T:Title
%%score { ( 1 4 ) | ( 2 3 ) }
L:1/8
Q:1/4=100
M:4/4
K:C
V:1 treble nm="Grand Piano"
V:4 treble 
V:2 bass 
V:3 bass 
V:1
 c2 (3EFG A2 (3DEF | G2 [B,G]2 C4 | [B,D]>[CE] [DF]>[B,D] [CE]2 [Ec]2 | [DB]2 [^FA]2 G4 | %4
w: John~J.~Thomas * * * * * * *||||
 c2 (3EFG A2 (3DEF | G2 [B,G]2 C2 E2 | D>D G>[GB] [^Fd]2 [CDF]2 | [B,DG]6 z2 | %8
w: ||||
 [G,CE]2 [G,CE]2 [G,CE]2 [G,CE]2 | [G,CE]2 [G,CE]2 [G,CE]2 G>G | [Ec]2 B>A [EB]2 A>G | %11
w: |||
 [EA]2 [EA]2 [G,CE]4 | G>G G>[D^G] [^CA]2 [CE]2 | [EG]4 [DF]4 | [Fd]2 c>B [Fc]2 B>A | %15
w: ||||
 [FB]2 [FB]2 [G,DF]4 | D>E F>G [FA]2 [FB]2 | [_EA]4 [G,=EG]2 z2 | [Ec]2 B>A [EB]2 A>G | %19
w: ||||
 [EA]2 [EA]2 [G,CE]4 | G>G G>[D^G] [^CA]2 [CE]2 | [EG]4 z4 | c2 c>c A4 | c2 c>c ^F4 | G4 d4 | %25
w: ||||||
 c6 z2 |] %26
w: |
V:2
 C2 (3E,F,G, A,2 (3D,E,F, | G,2 [G,,F,]2 [C,E,]4 | %2
 [G,,G,]>[G,,G,] [G,,G,]>[G,,G,] [C,G,]2 [A,,G,]2 | [D,G,]2 [D,C]2 [G,B,]4 | %4
 C2 (3E,F,G, A,2 (3D,E,F, | G,2 [G,,F,]2 [C,E,]2 [^C,G,_B,]2 | %6
 [D,G,B,]>[D,G,B,] [D,B,D]>[D,D] [D,C]2 D,2 | G,6 z2 | C,2 G,,2 C,2 G,,2 | C,2 G,,2 C,2 G,>G, | %10
 [C,G,]2 [G,,G,]2 [C,G,]2 [G,,G,]2 | [C,G,]2 [G,,G,]2 C,2 G,,2 | %12
 [E,G,C]>[E,G,C] [C,E,C]>[B,,E,] [A,,E,]2 [A,,A,]2 | [^C,A,]4 [D,A,]4 | %14
 [D,G,]2 [G,,G,]2 [D,G,]2 [G,,G,]2 | [D,G,]2 [G,,G,]2 B,,2 G,,2 | %16
 [G,B,]>[G,C] [G,D]>[G,E] [G,,G,]2 [G,,G,]2 | [C,^F,]4 C,2 (3E,,G,,B,, | %18
 [C,G,]2 [G,,G,]2 [C,G,]2 [G,,G,]2 | [C,G,]2 [G,,G,]2 C,2 G,,2 | %20
 [E,G,C]>[E,G,C] [C,E,C]>[B,,E,] [A,,E,]2 [A,,A,]2 | A,2 z2 z4 | %22
 [^F,A,_E]2 [F,A,E]>[F,A,E] [F,CE]4 | [G,CE]2 [G,CE]>[G,CE] [A,C_E]4 | %24
 [G,CE]2 [G,C]2 [G,B,F]2[K:bass] [G,B,]2 | z2 A,2 G,2 z2 |] %26
V:3
 x8 | x8 | x8 | x8 | x8 | x8 | x8 | z2 F,2 E,2 D,2 | x8 | x8 | x8 | x8 | x8 | x8 | x8 | x8 | x8 | %17
 x8 | x8 | x8 | x8 | D,4 [D,A,D]4 | x8 | x8 | x6[K:bass] x2 | C,6 z2 |] %26
V:4
 x8 | x8 | x8 | x8 | x8 | x8 | x8 | x8 | x8 | x8 | z2 E2 z2 E2 | x8 | x8 | x8 | z2 F2 z4 | x8 | %16
 x8 | x8 | z2 E2 z2 E2 | x8 | x8 | z2 _B,2 F4 | x8 | x8 | z2 E2 z2 F2 | [CE]2 F2 E2 z2 |] %26

